X:1
T:Madonna, io v'amo
T:Madonna, io v'amo
T:Jhan Gero
T:Source : Trium vocum cantiones---Nürnberg---J.Petreius---1541. Editor : André Vierendeels (10/04/16).
T:Notes : Original clefs : C2, C4 F4 Editorial accidentals above the staff Note values have been halved
T:©
T:©
T:©
T:©
C:Jhan Gero
Z:©
%%score [ 1 2 3 ]
L:1/8
Q:1/4=94
M:2/2
K:C
V:1 treble nm="Alto" snm="A"
V:2 treble-8 nm="Tenor" snm="T"
V:3 bass nm="Bass" snm="B"
V:1
 z8 | z4 G4- | G4 G4 | C4 G4 | F2 D2 E4 | D2 D2 E2 F2 | G3 F E2 D2 | E2 G4 F2 | G2 D2 G3 F | %9
w: |Ma-|* don-|na'io v'a-|mo'et tac- ci-|o, vel puo giu-|rar a- mo- re,|che tan- to|foc' in me _|
 E2 D2 C2 E2 | D2 C2 B,2 C2- | C2 B,2 C4- | C4 z2 C2 | D2 D2 E2 E2 | C2 C2 z2 C2 | D2 D2 E2 E2 | %16
w: _ quant' in voi|giac- * * *|* * cio,|_ Et|s'io non o- so|di- re l'in-|ten- so mio mar-|
 C2 C2 E4 | E2 D2 C2 C2 | B,2 D2 E3 D | C2 D3 C C2- | C2 B,2 C4- | C4 z2 C2 | C3 D E2 F2- | %23
w: ti- re, no'l|fo per sal- var|me m'al vo- *|* str'ho- * no-|* * re,|_ io|vi por- to nel-|
 FE E4 D2 | E4 G4 | G2 G2 E2 E2 | F4 D4 | E3 D C2 B,2 | A,4 G,4 | G4 G2 G2 | E4 C4 | E6 F2 | %32
w: * * co- *|re, da|voi vien l'al- ta|spem' e'l|gran _ _ de-|si- o,|et mer- ce|vo- stra|viv' in|
 G2 A3 G G2- |"^#" G2 F2 G4 | z2 G2 G2 G2 | F2 E2 D4 | G4 F3 E | D4 C4 | G4 G2 G2 | F2 E2 D2 G2- | %40
w: fiam- m'ac- * ce-|* * so,|vor- ria sen-|za par- lar|es- ser in-|te- so,|vor- ria sen-|za par- lar es-|
 GF E2 D2 C2- | C2 B,2 C4 |] %42
w: * * ser in- te-|* * so.|
V:2
 c8 | c4 G4 | c4 B2 G2 | A4 G2 G2 | A2 B2 c3 B | G2 B2 A4 | G2 G2 A2 B2 | c3 B A4 | G6 G2 | %9
w: Ma-|don- na'io|v'a- mo'et tac-|ci- o, vel|puo giu- rar a-|mo- * *|re, vel puo giu-|rar a- mo-|re, che|
 c3 B A2 G2 | F2 E2 D2 C2 | D4 C4 | z2 G2 A2 G2 | A2 B2 c2 c2 | z2 G2 A2 G2 | A2 B2 c2 c2 | %16
w: tan- to foc' in|me quant' in voi|giac cio,|et s'io non|o- so di- re|l'in- ten- so|mio mar- ti- re,|
 A4 B2 c2- | c2 B2 A4 | G6 G2 | A2 GF E2 F2 | D4 C4- | C4 G4 | G2 A2 B2 c2- | cBAG A2 B2 | c8 | %25
w: no'l fo per|_ sal- var|me m'al|vo- * * * str'ho-|no- re,|_ io|vi por- to nel|_ _ _ _ co- re,|da|
 c4 c2 c2 | A2 A2 B4 | G4 A2 G2- |"^#" G2 F2 G4 | z4 c4 | c2 c2 A4 | G4 c4- | c2 BA B2 c2 | A4 G4 | %34
w: voi vien l'al-|ta spem' e'l|gran de- si-|* * o,|et|mer- ce vo-|stra viv'|_ in _ fiam' m'ac-|ce- so,|
 G4 G2 G2 | A2 c2 BAGF | E2 e2 d2 c2- | c2 B2 c4 | G4 G2 G2 | A2 c2 BAGF | E2 E2 F2 E2 | D4 C4 |] %42
w: vor- ria sen-|za par- lar _ _ _|_ es- ser in-|* te- so,|vor- ria sen-|za par- lar _ _ _|_ es- ser in-|te- so.|
V:3
 z8 | C,8 | C,4 G,,4 | F,4 C,2 E,2 | D,4 C,4 | z4 z2 D,2 | E,3 D, C,2 B,,2 | A,,2 G,,2 z2 D,2 | %8
w: |Ma-|don- na'io|v'a- mo'et tac-|ci- o,|vel|puo giu- rar a-|mo- re, che|
 G,3 F, E,2 D,2 | C,8 | F,,4 G,,2 A,,2 | G,,4 C,4 | z2 C,2 F,2 E,2 | F,2 G,2 C,2 C,2 | %14
w: tan- to foc' in|me|quant' in voi|giac- co,|et s'io non|o- so di- re|
 z2 C,2 F,2 E,2 | F,2 G,2 C,2 C,2 | F,4 E,2 C,D, | E,F, G,4 F,2 | G,3 F, E,D,C,B,, | %19
w: l'in- ten- so|mio mar- ti- re,|no'l fo per _|_ _ sal- var|me _ _ _ _ _|
 A,,2 B,,2 C,2 A,,2 | G,,4 C,4 | z2 C,2 C,3 D, | E,2 F,2 E,2 A,2- | A,G,F,E, F,2 G,2 | C,8 | %25
w: _ m'al vo- str'ho-|no- re,|io por- to|nel co- * *||re,|
 z2 C,2 C,2 C,2 | D,2 D,2 B,,4 | C,4 A,,2 B,,2 | C,2 D,2 G,,2 G,2 | G,2 G,2 E,4 | C,4 F,4 | %31
w: da voi vien|l'al- ta spe-|me e'l gran|de- si- o, et|mer- ce vo-|stra viv'|
 E,2 C,4 D,2 | E,2 F,2 G,2 E,2 | D,4 G,,4 | C,4 E,2 E,2 | D,2 C,2 G,4- | G,2 E,2 F,2 F,2 | %37
w: in fiam- m'ac|ce- * * *|* so,|vor- ria sen-|za par- lar|_ es- ser in|
 G,4 C,4- | C,2 C,2 E,2 E,2 | D,2 C,2 G,F,E,D, |"^b" C,2 C,2 B,,2 C,2 | G,,4 C,4 |] %42
w: te- so,|_ vor- ria sen-|za par- lar _ _ _|_ es- ser in-|te- so.|

